!!!OTL: TYROLER SIND LUSTIG TYROLER SIND FROH
!!!ARE: Europa, Mitteleuropa, Deutschland
!!!SCT: B0187
!!!YEM: Copyright 1995, estate of Helmut Schaffrath.
**kern
*ICvox
*Ivox
*M3/4
*k[]
*C:
{8g
8e
8g
=1
8cc
8g
4.e
8c
=2
8B
8d
4.f}
{8a
=3
8f
8d
4B
8B
8g
=4
4.g}
{8f
8e
8g
=5
8cc
8g
4.e
8c
=6
8B
8d
4.f}
{8a
=7
8f
8d
4B
4B
=8
4c
4r}
{4g
=9
8f#
8a
4.d
8f#
=10
8g
8b
4.d}
{8g
=11
8f#
8g
8a
8b
8cc
8a
=12
8b
8dd
8cc
8b}
{8a
8g
=13
8f#
8a
4.d
8f#
=14
8g
8b
4.d}
{8g
=15
8f#
8g
8a
8b
8cc
8a
=16
4.g}
{8g
8e
8g
=17
8cc
8g
4.e
8c
=18
8B
8d
4.f}
{8a
=19
8f
8d
4B
8B
8g
=20
4.g}
{8f
8e
8g
=21
8cc
8g
4.e
8c
=22
8B
8d
4.f}
{8a
=23
8f
8d
4B
4B
=24
4c
8r}
==
!!!AGN: Natur - Lied, Landleben, Berg
!!!ONB: ESAC (Essen Associative Code) Database: BOEHME
!!!AMT: simple triple
!!!AIN: vox
!!!EED: Helmut Schaffrath
!!!EEV: 1.0
*-
